overrides/.icons/option/feat-general.svg

<?xml version="1.0" encoding="UTF-8" standalone="no"?>
<svg
   viewBox="0 0 24 24"
   version="1.1"
   id="svg1"
   sodipodi:docname="feat-general.svg"
   inkscape:version="1.3.2 (091e20e, 2023-11-25, custom)"
   xml:space="preserve"
   xmlns:inkscape="http://www.inkscape.org/namespaces/inkscape"
   xmlns:sodipodi="http://sodipodi.sourceforge.net/DTD/sodipodi-0.dtd"
   xmlns="http://www.w3.org/2000/svg"
   xmlns:svg="http://www.w3.org/2000/svg"><defs
     id="defs1" /><sodipodi:namedview
     id="namedview1"
     pagecolor="#ffffff"
     bordercolor="#111111"
     borderopacity="1"
     inkscape:showpageshadow="0"
     inkscape:pageopacity="0"
     inkscape:pagecheckerboard="1"
     inkscape:deskcolor="#d1d1d1"
     inkscape:zoom="10.8125"
     inkscape:cx="12.99422"
     inkscape:cy="7.5375723"
     inkscape:window-width="1366"
     inkscape:window-height="697"
     inkscape:window-x="-8"
     inkscape:window-y="-8"
     inkscape:window-maximized="1"
     inkscape:current-layer="svg1" /><path
     id="path1"
     d="M 7 2 C 5.9000022 2 5 2.9000022 5 4 L 5 20 C 5 21.099998 5.9000022 22 7 22 L 17 22 C 18.099998 22 19 21.099998 19 20 L 19 4 C 19 2.9000022 18.099998 2 17 2 L 7 2 z M 12.714844 4.8574219 A 2.8571429 2.8571429 0 0 1 15.572266 7.7148438 L 15.572266 16.285156 L 9.4433594 16.285156 C 9.1790738 16.285156 8.9220423 16.172042 8.7363281 15.986328 C 8.3363313 15.593471 8.3356588 14.950781 8.7285156 14.550781 L 12.15625 11.121094 C 12.491964 10.78538 12.571708 10.27885 12.357422 9.8574219 C 12.357422 9.8288499 12.336546 9.8065852 12.322266 9.7851562 C 12.100837 9.4565851 11.642411 9.3723216 11.328125 9.59375 L 9.8574219 10.572266 L 8.4277344 9.1425781 L 10.492188 6.0429688 C 10.985044 5.3001123 11.821988 4.8574219 12.714844 4.8574219 z M 7 17.714844 L 17 17.714844 L 17 19.142578 L 7 19.142578 L 7 17.714844 z " /></svg>

<?xml version="1.0" encoding="UTF-8"?>
<svg id="svg1" version="1.1" viewBox="0 0 24 24" xml:space="preserve" xmlns="http://www.w3.org/2000/svg"><path id="path1" d="m7 2c-1.1 0-2 0.9-2 2v16c0 1.1 0.9 2 2 2h10c1.1 0 2-0.9 2-2v-16c0-1.1-0.9-2-2-2h-10zm5.7148 2.8574a2.8571 2.8571 0 0 1 2.8574 2.8574v8.5703h-6.1289c-0.26429 0-0.52132-0.11311-0.70703-0.29883-0.4-0.39286-0.40067-1.0355-0.0078125-1.4355l3.4277-3.4297c0.33571-0.33571 0.41546-0.84224 0.20117-1.2637 0-0.028572-0.020876-0.050837-0.035156-0.072266-0.22143-0.32857-0.67986-0.41283-0.99414-0.19141l-1.4707 0.97852-1.4297-1.4297 2.0645-3.0996c0.49286-0.74286 1.3298-1.1855 2.2227-1.1855zm-5.7148 12.857h10v1.4277h-10v-1.4277z"/></svg>
